X: 2391
T: HORNPIPE
R: Hornpipe.
%R: hornpipe, reel
B: James Kerr "Merry Melodies" v.2 p.44 #391
Z: 2016 John Chambers <jc:trillian.mit.edu>
M: C
L: 1/8
K: Bb
!segno! (F/E/D/C/) |\
B,2(DF) BAcB | G2(ce) g^fag |\
f=egf _ecAF | (3Bdc (3BAG FEDC |\
B,2(DF) BAcB | G2(ce) g^fag |\
fecA F^FGA | B2B2B2 H:|
|: (cB) |\
A2 (A,C) EFAc | B2(B,D) FBdf |\
=e2(=EG) Bceg | g^ege f2 (cB) |\
A2(A,C) EFAc | B2(B,D) FBdf |\
=ec=Bc dcbe | f=ege f2 :|
